img/technologies/mojo.svg

<svg xmlns="http://www.w3.org/2000/svg" width="100%" viewBox="0 0 80 80" fill="none" class="mojo-hero_logo"><path d="M66.5384 33.9017C67.2094 36.4616 64.3517 39.1915 64.3517 39.1915C64.3517 39.1915 59.1418 42.5132 60.1581 28.2606C61.1745 14.008 37.8294 0 37.8294 0C37.8294 0 37.9624 1.35868 37.8229 10.7541C37.6476 22.5778 30.5938 18.5243 30.5938 18.5243C23.5331 25.8093 24.1751 42.2607 24.1751 42.2607C15.434 49.7057 15.1277 34.226 15.1277 34.226C15.1277 34.226 -1.51452 50.4134 16.2833 67.7551C16.2833 67.7551 18.8931 70.2676 14.722 69.4678C11.7473 68.8981 11.0754 67.752 11.0754 67.752C11.0754 67.752 11.643 74.9302 32.6295 79.4232C33.0367 79.5029 39.5592 80.7397 46.9263 79.3237C63.093 75.8266 65.9153 69.3286 65.9153 69.3286C65.9153 69.3286 65.573 69.9151 62.8905 70.1771C60.0079 70.4587 62.4825 67.7816 62.4825 67.7816C81.477 56.2945 65.8674 31.3418 66.5384 33.9017Z" fill="#FF4C1F"></path><path d="M59.6245 57.543C63.4083 51.8363 60.5124 47.5823 60.5124 47.5823C54.5845 50.5165 52.8128 48.4643 52.2876 46.801C52.0798 46.1426 52.0448 45.4434 52.1653 44.7653C56.0125 23.1038 41.135 11.3946 41.5073 14.2874C41.62 15.162 41.4637 16.3098 41.1885 17.4885C40.5382 20.2792 39.2956 22.9075 37.6024 25.2553C35.2705 28.4894 31.0559 35.4266 28.7619 45.8629C25.4781 60.8022 16.0343 49.9851 16.0343 49.9851C16.0343 49.9851 10.5009 68.195 33.0492 79.4985C34.377 79.721 38.5791 80.3046 43.6454 79.7993C58.461 73.0868 63.7808 59.9749 63.7808 59.9749C63.7808 59.9749 55.8407 63.2497 59.6245 57.543Z" fill="#FF9C45"></path><path d="M54.4578 53.6605C54.4602 53.6548 54.4614 53.6526 54.4614 53.6526L54.4578 53.6605Z" fill="#FFDD56"></path><path d="M54.4578 53.6605C54.3811 53.8501 52.7924 57.5631 46.8988 58.5069C40.8508 59.4748 43.5088 39.179 43.5088 39.179C28.6372 45.9609 31.399 61.8985 31.399 61.8985C31.399 61.8985 29.0231 64.1059 25.9807 61.8953C24.9471 61.1448 27.2094 74.7013 36.9277 79.9198C38.7314 80.029 40.9836 80.0513 43.4464 79.8179C50.1371 75.3403 53.7006 61.3042 53.7006 61.3042L50.6318 63.1286L54.4578 53.6605Z" fill="#FFDD56"></path><path d="M11.7614 32.2478C11.7614 32.2478 10.8943 24.9007 15.1433 21.6578C15.807 21.1509 16.2545 20.7399 16.5821 19.9869C16.849 19.375 17.2625 18.4026 17.0616 17.6747C16.5594 15.8515 22.7266 25.9378 11.7614 32.2478Z" fill="#FF4C1F"></path><path d="M43.4922 79.8146C46.1944 77.0813 49.8018 66.1562 49.8018 66.1562C49.8018 66.1562 49.0204 68.3944 46.1049 68.0982C42.0949 67.69 39.8958 57.4043 39.8958 57.4043C39.8958 57.4043 36.5586 66.1483 35.8578 67.4436C34.3817 70.1721 31.6576 67.4411 31.6576 67.4411C30.9343 71.887 36.6816 78.26 38.3311 79.9835C39.8604 80.0252 41.6151 79.9943 43.4922 79.8146Z" fill="#FCFBCC"></path></svg>

<svg xmlns="http://www.w3.org/2000/svg" viewBox="0 0 80 80" fill="none" class="mojo-hero_logo"><path d="M66.538 33.902c.671 2.56-2.186 5.29-2.186 5.29s-5.21 3.321-4.194-10.931C61.175 14.008 37.83 0 37.83 0s.133 1.359-.006 10.754c-.175 11.824-7.23 7.77-7.23 7.77-7.06 7.285-6.418 23.737-6.418 23.737-8.741 7.445-9.047-8.035-9.047-8.035s-16.643 16.187 1.155 33.53c0 0 2.61 2.512-1.561 1.712-2.975-.57-3.647-1.716-3.647-1.716s.568 7.178 21.554 11.671c.408.08 6.93 1.317 14.297-.1 16.167-3.496 18.99-9.994 18.99-9.994s-.343.586-3.025.848c-2.883.282-.408-2.395-.408-2.395 18.994-11.487 3.384-36.44 4.055-33.88Z" fill="#FF4C1F"/><path d="M59.624 57.543c3.784-5.707.888-9.96.888-9.96-5.928 2.934-7.7.881-8.224-.782a4.277 4.277 0 0 1-.123-2.036c3.848-21.661-11.03-33.37-10.658-30.478.113.875-.043 2.023-.319 3.201-.65 2.791-1.892 5.42-3.586 7.767-2.331 3.234-6.546 10.172-8.84 20.608-3.284 14.94-12.728 4.122-12.728 4.122S10.501 68.195 33.05 79.5c1.328.222 5.53.806 10.596.3 14.816-6.712 20.136-19.824 20.136-19.824s-7.94 3.275-4.157-2.432Z" fill="#FF9C45"/><path d="M54.458 53.66a.1.1 0 0 1 .003-.007l-.003.008ZM54.458 53.66c-.077.19-1.666 3.903-7.56 4.847-6.047.968-3.39-19.328-3.39-19.328-14.87 6.782-12.109 22.72-12.109 22.72s-2.376 2.207-5.418-.004c-1.034-.75 1.228 12.806 10.947 18.025 1.803.109 4.056.131 6.518-.102 6.691-4.478 10.255-18.514 10.255-18.514l-3.07 1.825 3.827-9.468Z" fill="#FFDD56"/><path d="M11.761 32.248s-.867-7.347 3.382-10.59c.664-.507 1.111-.918 1.44-1.671.266-.612.68-1.584.479-2.312-.503-1.824 5.665 8.263-5.3 14.573Z" fill="#FF4C1F"/><path d="M43.492 79.815c2.702-2.734 6.31-13.659 6.31-13.659s-.782 2.238-3.697 1.942c-4.01-.408-6.21-10.694-6.21-10.694s-3.336 8.744-4.037 10.04c-1.476 2.728-4.2-.003-4.2-.003-.724 4.446 5.024 10.819 6.673 12.543 1.53.041 3.284.01 5.161-.17Z" fill="#FCFBCC"/></svg>
